X:1
T:Title
%%score { ( 1 3 ) | ( 2 4 ) }
L:1/8
Q:1/4=105
M:12/8
K:G
V:1 bass nm="Grand Piano"
V:3 bass 
V:2 bass 
V:4 bass 
V:1
 [G,B,D]3 [G,B,D]3 [F,CD]3 [F,CD]3 | [G,D][K:treble][G,DE][G,DF] [G,DG][DA][DB] [EB]3 [EA]3 | %2
w: Charles~H.~Gabriel * * *||
 c2 B A3 [DB]2 [DA] [DG]3 | z6 A6[K:bass] | [G,B,D]3 [G,B,D]3 [F,CD]3 [F,CD]3 | %5
w: |||
 [G,D][G,DE][G,DF] [G,DG][DA][DB] [EB]3 [EA]3 | [Ee]2 [Ge] [EGA]3 [Gd]2 [Gd] [GB]3 | %7
w: ||
 [FA][GB][Ac] [GB]2 [CDA] [B,DG]6 | [DFA]2 [FA] [DA]2 A [^CGA]3 [CGA][GB][G^c] | %9
w: ||
 [Fd]2 [A^c] [DGB]2 [Gd] D3- [DA]3 | [^CGA]3 [CGA]3 [CGA]6 | z6 [FA]6 | %12
w: |||
 [DFA]2 [FA] [DA]2 A [^CGA]3 [CGA][GB][G^c] | [Fd]2 [A^c] [DGB]2 [Gd] D3- [DA]3 | %14
w: ||
 [DGB]2 [DGB] [DEB]3 [EA^c]2 [EAc] [EAc]3 | [DAd]3 [DAd]3 d6 | d3 ^c2 B A3 F2 F | %17
w: |||
 [FA]2 [EG] [DF]2[K:bass] [G,^CE] [F,D]6 | [G,B,D]3 [G,B,D]3 [F,CD]3 [F,CD]3 | %19
w: ||
 [G,D][G,DE][G,DF] [G,DG][DA][DB] [EB]3 [EA]3 | c2 B A3 [DB]2 [DA] [DG]3 | z6 A6[K:bass] | %22
w: |||
 [G,B,D]3 [G,B,D]3 [F,CD]3 [F,CD]3 | [G,D][G,DE][G,DF] [G,DG][DA][DB] [EB]3 [EA]3 | %24
w: ||
 [Ee]2 [Ge] [EGA]3 [Gd]2 [Gd] [GB]3 |[M:10/4] [FA][GB][Ac][GB]-[GB][CDA] [B,DG]6 z8 |] %26
w: ||
V:2
 G,,3 G,,3 A,,3 A,,3 | B,,B,,B,, B,,[B,,G,][B,,G,] [C,G,]3 [C,A,]3 | %2
 [D,A,D]2 [D,G,D] [D,F,D]3 [G,,G,]2 [A,,F,] [B,,G,]3 | z6 [F,C]6 | G,,3 G,,3 A,,3 A,,3 | %5
 B,,B,,B,, B,,[B,,G,][B,,G,] [C,G,]3 [C,A,]3 | [^C,A,]2 [C,A,] C,3 [D,B,]2 [D,B,] [D,D]3 | %7
 [D,D][D,D][D,D] [D,D]2 D, G,,6 | z2 D z2 D E,3 z B,A, | A,2 A, z2 B, D,3 F,3 | %10
 E,A,,B,, ^C,D,E, G,2 E, C,2 A,, | D,A,,D, F,D,F, A,2 G, F,2 E, | z2 D z2 D E,3 z B,A, | %13
 A,2 A, z2 B, D,3 F,3 | G,E,G, ^G,E,G, A,B,A, G,F,E, | F,D,E, F,G,A,[K:treble] [B,DG]6 | %16
 [^G,B,=F]3 [G,B,F]2 [G,B,F] [A,D^F]3[K:bass] [A,D]2 [A,D] | z6 D,2 D,- D,3 | G,,3 G,,3 A,,3 A,,3 | %19
 B,,B,,B,, B,,[B,,G,][B,,G,] [C,G,]3 [C,A,]3 | %20
 [D,A,D]2 [D,G,D] [D,F,D]3 [G,,G,]2 [A,,F,] [B,,G,]3 | %21
 [A,,G,][A,,G,][A,,G,] [A,,A,][A,,A,][A,,G,] [F,C]3- [C,F,-C-][B,,F,-C-][A,,F,C] | %22
 G,,3 G,,3 A,,3 A,,3 | B,,B,,B,, B,,[B,,G,][B,,G,] [C,G,]3 [C,A,]3 | %24
 [^C,A,]2 [C,A,] C,3 [D,B,]2 [D,B,] [D,D]3 |[M:10/4] [D,D][D,D][D,D][D,D]-[D,D]D, G,,6 z8 |] %26
V:3
 x12 | x[K:treble] x11 | x12 | [^CA][CB][CG] [CE][CF][CG] z[K:bass] E,D,- D,3 | x12 | x12 | x12 | %7
 x12 | x12 | z6 [FA]3 z3 | x12 | [DFA]3 [DFA]3 D3 .D3 | x12 | z6 [FA]3 z3 | x12 | x12 | x12 | %17
 x5[K:bass] x7 | x12 | x12 | x12 | [^CA][CB][CG] [CE][CF][CG] z[K:bass] E,D,- D,3 | x12 | x12 | %24
 x12 |[M:10/4] x20 |] %26
V:4
 x12 | x12 | x12 | [A,,G,][A,,G,][A,,G,] [A,,A,][A,,A,][A,,G,] .D,3 C,B,,A,, | x12 | x12 | x12 | %7
 x12 | D,3 F,3 z3 A,,3 | D,3 D,3 z6 | x12 | x12 | D,3 F,3 z3 A,,3 | D,3 D,3 z6 | x12 | %15
 x6[K:treble] x6 | x9[K:bass] x3 | [A,,A,]2 [A,,A,] [A,,A,]2 A,, z .E,2 C,B,,A,, | x12 | x12 | %20
 x12 | z6 .D,3 z3 | x12 | x12 | x12 |[M:10/4] x20 |] %26

